X: 143
T:TROMPEUSE DE DINAN
M:4/4
L:1/8
Q:1/4=60
Z:Yves BELOTTEAU
K:C
|Gcde f/2e/2de/2d/2c|Gcde f/2e/2d2.g2|cdef/2e/2 de/2d/2cG|cdef/2e/2 d2.g
2|
efgg/2g/2 gagf|deff/2f/2 fgfe|dcd2 d2.g2|efgg/2g/2 gagf|
deff/2f/2 fgfe|dcd2 d2.g2|g2c/2|
W:
W: From "Falaleiro" http://home.t-online.de/home/pheld/homepage.htm
